X: 386
T: Big Footed Man in the Sandy Lot
B: jims roots
M:4/4
L:1/8
R: Reel
Q: 1/4=100
K:G
V:1 
|:"G"gage gagf | edBc d4 | "C"e3g adBc | "G"[d3f3] [fd] [d4f4]|
  "G"gage gagf | edBc d4 | BAGB "D"AGED | "G"[G3B3] [GB] [G4B4]:|
|:"G"G2BG AGBG | AGEF G4 | e3g "D"edBc | "G"d3d d4|
  "G"gage gagf | edBc d4 | BAGB "D"AGFD | "G"[G3B3][GB] [G4B4]:|
% abcbook-tune_id 6298c24517bc41aa52b19ebd


% abcbook-boost 0
% abcbook-tablature 
% abcbook-transpose 
% abcbook-lastupdated 1654178373296
% abcbook-soundfonts 
% abcbook-repeats 1


